X:1
T:Come drink to me and I will drink to thee
T:Thomas Ravenscroft (ca.1582 — ca.1635) 
T:Come drink to me and I will drink to thee
T:Copyright © 
T:Copyright © 
T:Copyright © 
T:Copyright © 
T:Copyright © 
C:Thomas Ravenscroft (ca.1582 — ca.1635)
C:
Z:Copyright ©
%%score [ 1 2 3 4 ]
L:1/8
M:2/2
K:C
V:1 treble-8 transpose=-12 nm="P1"
V:2 treble-8 transpose=-12 nm="P2"
V:3 treble-8 transpose=-12 nm="P3"
V:4 treble-8 transpose=-12 nm="P4"
V:1
 C8 | D6 D2 | E4 E4 | F4 F4 | G4 G4 | A8 | E8 | A4 A4 | G6 G2 | F8 | E8 | D4 D4 | C8 | z4 c2 c2 | %14
w: Come|drink to|me and|I will|drink to|thee,|to|thee and|then shall|we|full|well a-|gree.|I have|
 B4 A4 | A2 A2 ^G4 | A4 z2 f2 | e2 e2 d4- | d2 A2 c4 | B4 z2 e2 | c2 A2 e4- | e4 d4 | z2 A2 A2 B2 | %23
w: loved the|jol- ly tank-|ard full|se- ven win-|* ters and|more, I|loved it so|_ long|till that I|
 c4 G4 | A4 F4 | G8 | e6 e2 | d4 f2 f2 | e6 e2 | d4 c4 | c4 B4 | A4 a4 | a4 ^g4 | a6 c'2 | %34
w: went u-|pon the|score.|He that|loves not the|tank- ard|is no|ho- nest|man, no|ho- nest|man and|
 b2 g2 c'2 b2 | a6 a2 | g4 c'4 | c'4 b4 | c'8 | (3:2:2g4 f2 (3e3 d c2 | (3:2:2f4 g2 (3a3 g f2 | %41
w: he is no right|sol- dier|that loves|not the|can.|Tap the ca- ni- kin,|toss the can- i- kin,|
 (3:2:2g4 c'2 (3b3 a ^g2 | (3:2:2a4 a2 (3f3 g a2 | g6 g2 | f4 e4 | e2 e2 e2 B2 | c8 | z4 B4 | %48
w: troll the can- i- kin,|turn the can- i- kin.|Hold good|son and|fill us a fresh|can,|that|
 c2 c2 c2 d2 | e3 f g2 g2 | f4 d4 | e8 | C8 | D6 D2 | E4 E4 | F4 F4 | G4 G4 | A8 | E8 | A4 A4 | %60
w: we may quaff it|round a- bout from|man to|man.|Come|drink to|me and|I will|drink to|thee.|Come|drink and|
 G6 G2 | F8 | E8 | D6 D2 | C8 | z4 c2 c2 | B4 A4 | A2 A2 ^G4 | A4 z2 f2 | e2 e2 d4- | d2 A2 c4 | %71
w: then shall|we|full|well a-|gree.|I have|loved the|jol- ly tank-|ard full|se- ven win-|* ters and|
 B4 z2 e2 | c2 A2 e4- | e4 d4 | z2 A2 A2 B2 | c4 G4 | A4 F4 | G8 | e6 e2 | d4 f2 f2 | e6 e2 | %81
w: more, I|loved it so|_ long|till that I|went u-|pon the|score.|He that|loves not the|tank- ard|
 d4 c4 | c4 B4 | A4 a4 | a4 g4 | a6 c'2 | b2 g2 c'2 b2 | a6 a2 | g4 c'4 | %89
w: is no|ho- nest|man, no|ho- nest|man and|he is no right|sol- dier|that loves|
 c'4"^Continue ad lib" b4 | c'8 | %91
w: not the|can.|
V:2
 z8 | z8 | z8 | z8 | z8 | z8 | z8 | z8 | z8 | z8 | z8 | z8 | z8 | C8 | D6 D2 | E4 E4 | F4 F4 | %17
w: |||||||||||||Come|drink to|me and|I will|
 G4 G4 | A8 | E8 | A4 A4 | G6 G2 | F8 | E8 | D4 D4 | C8 | z4 c2 c2 | B4 A4 | A2 A2 ^G4 | A4 z2 f2 | %30
w: drink to|thee,|to|thee and|then shall|we|full|well a-|gree.|I have|loved the|jol- ly tank-|ard full|
 e2 e2 d4- | d2 A2 c4 | B4 z2 e2 | c2 A2 e4- | e4 d4 | z2 A2 A2 B2 | c4 G4 | A4 F4 | G8 | e6 e2 | %40
w: se- ven win-|* ters and|more, I|loved it so|_ long|till that I|went u-|pon the|score.|He that|
 d4 f2 f2 | e6 e2 | d4 c4 | c4 B4 | A4 a4 | a4 ^g4 | a6 c'2 | b2 g2 c'2 b2 | a6 a2 | g4 c'4 | %50
w: loves not the|tank- ard|is no|ho- nest|man, no|ho- nest|man and|he is no right|sol- dier|that loves|
 c'4 b4 | c'8 | (3:2:2g4 f2 (3e3 d c2 | (3:2:2f4 g2 (3a3 g f2 | (3:2:2g4 c'2 (3b3 a ^g2 | %55
w: not the|can.|Tap the ca- ni- kin,|toss the can- i- kin,|troll the can- i- kin,|
 (3:2:2a4 a2 (3f3 g a2 | g6 g2 | f4 e4 | e2 e2 e2 B2 | c8 | z4 B4 | c2 c2 c2 d2 | e3 f g2 g2 | %63
w: turn the can- i- kin.|Hold good|son and|fill us a fresh|can,|that|we may quaff it|round a- bout from|
 f4 d4 | e8 | C8 | D6 D2 | E4 E4 | F4 F4 | G4 G4 | A8 | E8 | A4 A4 | G6 G2 | F8 | E8 | D6 D2 | C8 | %78
w: man to|man.|Come|drink to|me and|I will|drink to|thee.|Come|drink and|then shall|we|full|well a-|gree.|
 z4 c2 c2 | B4 A4 | A2 A2 ^G4 | A4 z2 f2 | e2 e2 d4- | d2 A2 c4 | B4 z2 e2 | c2 A2 e4- | e4 d4 | %87
w: I have|loved the|jol- ly tank-|ard full|se- ven win-|* ters and|more, I|loved it so|_ long|
 z2 A2 A2 B2 | c4 G4 | A4 F4 | G8 | %91
w: till that I|went u-|pon the|score.|
V:3
 z8 | z8 | z8 | z8 | z8 | z8 | z8 | z8 | z8 | z8 | z8 | z8 | z8 | z8 | z8 | z8 | z8 | z8 | z8 | %19
w: |||||||||||||||||||
 z8 | z8 | z8 | z8 | z8 | z8 | z8 | C8 | D6 D2 | E4 E4 | F4 F4 | G4 G4 | A8 | E8 | A4 A4 | G6 G2 | %35
w: |||||||Come|drink to|me and|I will|drink to|thee,|to|thee and|then shall|
 F8 | E8 | D4 D4 | C8 | z4 c2 c2 | B4 A4 | A2 A2 ^G4 | A4 z2 f2 | e2 e2 d4- | d2 A2 c4 | B4 z2 e2 | %46
w: we|full|well a-|gree.|I have|loved the|jol- ly tank-|ard full|se- ven win-|* ters and|more, I|
 c2 A2 e4- | e4 d4 | z2 A2 A2 B2 | c4 G4 | A4 F4 | G8 | e6 e2 | d4 f2 f2 | e6 e2 | d4 c4 | c4 B4 | %57
w: loved it so|_ long|till that I|went u-|pon the|score.|He that|loves not the|tank- ard|is no|ho- nest|
 A4 a4 | a4 ^g4 | a6 c'2 | b2 g2 c'2 b2 | a6 a2 | g4 c'4 | c'4 b4 | c'8 | (3:2:2g4 f2 (3e3 d c2 | %66
w: man, no|ho- nest|man and|he is no right|sol- dier|that loves|not the|can.|Tap the ca- ni- kin,|
 (3:2:2f4 g2 (3a3 g f2 | (3:2:2g4 c'2 (3b3 a ^g2 | (3:2:2a4 a2 (3f3 g a2 | g6 g2 | f4 e4 | %71
w: toss the can- i- kin,|troll the can- i- kin,|turn the can- i- kin.|Hold good|son and|
 e2 e2 e2 B2 | c8 | z4 B4 | c2 c2 c2 d2 | e3 f g2 g2 | f4 d4 | e8 | C8 | D6 D2 | E4 E4 | F4 F4 | %82
w: fill us a fresh|can,|that|we may quaff it|round a- bout from|man to|man.|Come|drink to|me and|I will|
 G4 G4 | A8 | E8 | A4 A4 | G6 G2 | F8 | E8 | D6 D2 | C8 | %91
w: drink to|thee.|Come|drink and|then shall|we|full|well a-|gree.|
V:4
 z8 | z8 | z8 | z8 | z8 | z8 | z8 | z8 | z8 | z8 | z8 | z8 | z8 | z8 | z8 | z8 | z8 | z8 | z8 | %19
w: |||||||||||||||||||
 z8 | z8 | z8 | z8 | z8 | z8 | z8 | z8 | z8 | z8 | z8 | z8 | z8 | z8 | z8 | z8 | z8 | z8 | z8 | %38
w: |||||||||||||||||||
 z8 | C8 | D6 D2 | E4 E4 | F4 F4 | G4 G4 | A8 | E8 | A4 A4 | G6 G2 | F8 | E8 | D4 D4 | C8 | %52
w: |Come|drink to|me and|I will|drink to|thee,|to|thee and|then shall|we|full|well a-|gree.|
 z4 c2 c2 | B4 A4 | A2 A2 ^G4 | A4 z2 f2 | e2 e2 d4- | d2 A2 c4 | B4 z2 e2 | c2 A2 e4- | e4 d4 | %61
w: I have|loved the|jol- ly tank-|ard full|se- ven win-|* ters and|more, I|loved it so|_ long|
 z2 A2 A2 B2 | c4 G4 | A4 F4 | G8 | e6 e2 | d4 f2 f2 | e6 e2 | d4 c4 | c4 B4 | A4 a4 | a4 ^g4 | %72
w: till that I|went u-|pon the|score.|He that|loves not the|tank- ard|is no|ho- nest|man, no|ho- nest|
 a6 c'2 | b2 g2 c'2 b2 | a6 a2 | g4 c'4 | c'4 b4 | c'8 | (3:2:2g4 f2 (3e3 d c2 | %79
w: man and|he is no right|sol- dier|that loves|not the|can.|Tap the ca- ni- kin,|
 (3:2:2f4 g2 (3a3 g f2 | (3:2:2g4 c'2 (3b3 a ^g2 | (3:2:2a4 a2 (3f3 g a2 | g6 g2 | f4 e4 | %84
w: toss the can- i- kin,|troll the can- i- kin,|turn the can- i- kin.|Hold good|son and|
 e2 e2 e2 B2 | c8 | z4 B4 | c2 c2 c2 d2 | e3 f g2 g2 | f4 d4 | e8 | %91
w: fill us a fresh|can,|that|we may quaff it|round a- bout from|man to|man.|

